messenger.svg

<svg xmlns="http://www.w3.org/2000/svg" width="33" height="32"><path fill-rule="evenodd" d="M16.5-.01c-9.1 0-16.49 6.64-16.49 14.82 0 4.66 2.4 8.81 6.15 11.53v5.65l5.61-2.99c1.5.4 3.09.62 4.73.62 9.11 0 16.49-6.63 16.49-14.81s-7.38-14.82-16.49-14.82zm1.64 19.95l-4.2-4.34-8.19 4.34 9.01-9.28 4.3 4.34 8.1-4.34-9.02 9.28z"/></svg>

<?xml version="1.0" encoding="utf-8"?>
<svg xmlns="http://www.w3.org/2000/svg"
	xmlns:xlink="http://www.w3.org/1999/xlink"
	width="33px" height="32px">
<path fill="rgb(0,0,0)" fill-rule="evenodd" d="M 16.5-0.01C 7.4-0.01 0.01 6.63 0.01 14.81 0.01 19.47 2.41 23.62 6.16 26.34 6.16 26.34 6.16 31.99 6.16 31.99 6.16 31.99 11.77 29 11.77 29 13.27 29.4 14.86 29.62 16.5 29.62 25.61 29.62 32.99 22.99 32.99 14.81 32.99 6.63 25.61-0.01 16.5-0.01ZM 18.14 19.94C 18.14 19.94 13.94 15.6 13.94 15.6 13.94 15.6 5.75 19.94 5.75 19.94 5.75 19.94 14.76 10.66 14.76 10.66 14.76 10.66 19.06 15 19.06 15 19.06 15 27.16 10.66 27.16 10.66 27.16 10.66 18.14 19.94 18.14 19.94Z"/>
</svg>
